blockchains/ethereum/assets/0x5d60d8d7eF6d37E16EBABc324de3bE57f135e0BC/logo.svg

<svg fill="none" height="250" viewBox="0 0 250 250" width="250" xmlns="http://www.w3.org/2000/svg" xmlns:xlink="http://www.w3.org/1999/xlink"><linearGradient id="a" gradientUnits="userSpaceOnUse" x1="62.8735" x2="186.924" y1="187.313" y2="63.0364"><stop offset="0" stop-color="#273469"/><stop offset="1" stop-color="#2e58db"/></linearGradient><linearGradient id="b" gradientUnits="userSpaceOnUse" x1="60.9906" x2="188.841" y1="204.08" y2="204.08"><stop offset="0" stop-color="#1990f2"/><stop offset="1" stop-color="#3cbcf7"/></linearGradient><path d="m249.15 125.198-46.6 46.55h-.05c-20.6-20.6-48.5-32.15-77.6-32.15-29.1001 0-57.0001 11.55-77.6001 32.15h-.1l-46.549998-46.55 124.250098-124.04956z" fill="url(#a)"/><path d="m188.85 185.4-63.9 63.8-63.95-63.8c16.9-17 39.9-26.55 63.9-26.45 4.25 0 8.55.3 12.75.9 19.4 2.7 37.4 11.7 51.2 25.55z" fill="url(#b)"/></svg>

<svg width="250" height="250" viewBox="0 0 250 250" fill="none" xmlns="http://www.w3.org/2000/svg">
<path d="M249.15 125.198L202.55 171.748H202.5C181.9 151.148 154 139.598 124.9 139.598C95.7999 139.598 67.8999 151.148 47.2999 171.748H47.1999L0.649902 125.198L124.9 1.14844L249.15 125.198Z" fill="url(#paint0_linear_37_33582)"/>
<path d="M188.85 185.4L124.95 249.2L61 185.4C77.9 168.4 100.9 158.85 124.9 158.95C129.15 158.95 133.45 159.25 137.65 159.85C157.05 162.55 175.05 171.55 188.85 185.4Z" fill="url(#paint1_linear_37_33582)"/>
<defs>
<linearGradient id="paint0_linear_37_33582" x1="62.8735" y1="187.313" x2="186.924" y2="63.0364" gradientUnits="userSpaceOnUse">
<stop stop-color="#273469"/>
<stop offset="1" stop-color="#2E58DB"/>
</linearGradient>
<linearGradient id="paint1_linear_37_33582" x1="60.9906" y1="204.08" x2="188.841" y2="204.08" gradientUnits="userSpaceOnUse">
<stop stop-color="#1990F2"/>
<stop offset="1" stop-color="#3CBCF7"/>
</linearGradient>
</defs>
</svg>
